svgs/light/bacterium.svg

<svg xmlns="http://www.w3.org/2000/svg" viewBox="0 0 576 512"><!--! Font Awesome Pro 6.0.0-alpha3 by @fontawesome - https://fontawesome.com License - https://fontawesome.com/license (Commercial License) --><path d="M544 100.3c-2.299-7.684-10.94-13.66-20.29-10.86l-22.39 6.625c-18.12-39.6-54.76-53.83-55.48-54.16l5.707-21.75C454.3 9.85 446.4 0 435.8 0c-7.27-.002-13.83 4.824-15.73 12.06l-5.557 21.27c-3.264-.3477-8.205-1.344-15.68-1.344c-4.568 0-10.08 .373-16.74 1.49c-16.67 2.773-32.86 6.854-48.72 11.67l-6.332-17.71c-3.062-8.504-12.45-12.84-20.75-9.809c-8.678 3.066-12.88 12.34-9.934 20.63l6.312 17.6C276.4 66.32 251.7 79.58 228.7 95.24L217.5 80.31C212.1 73.18 201.9 71.71 194.7 77.04c-7.273 5.369-8.58 15.5-3.295 22.57L202.6 114.6C180.9 132.2 161.3 152.2 143.9 174.1L128.5 162.9c-7.217-5.281-17.45-3.764-22.78 3.516C100.4 173.6 101.1 183.7 109.2 188.9l15.57 11.31C109.5 223.3 96.62 248 86.48 274.2L67.82 267.8C56.22 263.9 48.83 272.9 47.11 277.8c-2.908 8.404 1.539 17.56 10.08 20.5L76.11 304.8c-4.275 14.6-8.013 29.46-10.56 44.73c-2.016 12.07-1.476 23.87 .292 35.34l-22.21 6.566c-8.699 2.541-13.49 11.57-10.97 20.04c2.734 9.152 12.75 13.11 20.24 10.9l22.07-6.512c11.32 23.78 30.98 43.01 55.73 54.02l-5.752 21.92C122.2 502.3 130.4 512 140.5 512c7.201 0 14.11-4.916 16-12.06l5.527-21.12c4.791 .6152 9.479 1.193 14.21 1.193c23.07 0 44.85-7.467 63.08-19.93l14.1 14.45c3.426 3.514 14.51 8.586 23.05 .3242c6.441-6.199 6.602-16.41 .3242-22.81l-13.45-13.79c11.77-14.54 20.19-32.11 23.49-51.86c1.475-8.83 3.736-17.37 6.574-25.64l14.66 6.852c7.887 3.691 17.98 .0352 21.68-7.758c3.777-7.945 .3945-17.62-7.816-21.46l-14.67-6.855c14.55-24.65 35.3-45.05 60.4-58.95l6.613 14.95c3.521 7.869 13.35 11.71 21.53 8.26c8.316-3.695 11.87-13.25 8.301-21.29l-6.535-14.73c6.965-2.17 14.04-4.1 21.39-5.322c21.3-3.541 39.96-13.12 55.1-26.35l14.95 13.46c6.736 6.082 17.51 4.953 23.02-1.113c6.031-6.619 5.523-16.77-1.131-22.78l-15.83-14.26c13.91-22.06 20.46-48.82 16.17-76.54l21.85-6.455C541.7 117.9 546.6 108.1 544 100.3zM413.7 222.9c-80.29 13.36-145.1 78.13-158.5 158.3c-8.223 49.3-61.6 81.74-111.5 59.57c-17.58-7.82-31.73-21.5-39.83-38.52c-32.75-68.82 61.06-300.1 283.5-337.1c10.5-1.762 62.82-3.686 84.81 44.37C506.1 183.4 435.9 219.2 413.7 222.9zM192 272c-26.55 0-48.01 21.49-48.01 48s21.47 48 48.01 48s48.01-21.49 48.01-48S218.6 272 192 272zM192.2 336c-8.834 0-16.02-7.178-16.02-16S183.4 304 192.2 304S208.2 311.2 208.2 320S201.1 336 192.2 336zM272.3 184c-13.27 0-24.26 10.75-24.26 24S259.1 232 272.3 232c13.28 0 24.04-10.75 24.04-24S285.6 184 272.3 184z"/></svg>

<svg xmlns="http://www.w3.org/2000/svg" viewBox="0 0 576 512"><!-- Font Awesome Pro 6.0.0-alpha2 by @fontawesome - https://fontawesome.com License - https://fontawesome.com/license (Commercial License) --><path d="M544.036 100.328C541.737 92.645 533.094 86.666 523.746 89.473L501.36 96.098C483.235 56.496 446.598 42.27 445.875 41.941L451.582 20.191C454.27 9.85 446.395 0 435.803 0C428.534 -0.002 421.971 4.824 420.069 12.062L414.512 33.328C411.248 32.98 406.307 31.984 398.829 31.984C394.26 31.984 388.746 32.357 382.086 33.475C365.416 36.248 349.227 40.328 333.368 45.145L327.036 27.436C323.973 18.932 314.584 14.598 306.282 17.627C297.604 20.693 293.405 29.969 296.348 38.258L302.661 55.861C276.424 66.324 251.692 79.578 228.698 95.238L217.495 80.311C212.149 73.178 201.879 71.715 194.674 77.037C187.401 82.406 186.094 92.539 191.379 99.604L202.641 114.609C180.938 132.24 161.258 152.172 143.87 174.07L128.467 162.9C121.25 157.619 111.018 159.137 105.692 166.416C100.383 173.59 101.989 183.689 109.231 188.934L124.803 200.248C109.483 223.281 96.616 248.041 86.481 274.236L67.819 267.83C56.217 263.857 48.832 272.865 47.112 277.848C44.204 286.252 48.651 295.406 57.192 298.35L76.114 304.85C71.838 319.451 68.123 334.297 65.577 349.574C63.561 361.646 64.079 373.453 65.846 384.922L43.639 391.488C34.94 394.029 30.147 403.055 32.672 411.523C35.407 420.676 45.418 424.635 52.911 422.428L74.981 415.916C86.297 439.695 105.957 458.924 130.713 469.934L124.961 491.854C122.248 502.254 130.395 512 140.504 512C147.705 512 154.614 507.084 156.508 499.936L162.036 478.82C166.827 479.436 171.616 480.012 176.342 480.012C199.411 480.012 221.09 472.547 239.319 460.082L253.418 474.529C256.844 478.043 267.924 483.115 276.465 474.854C282.907 468.654 283.067 458.443 276.789 452.043L263.338 438.254C275.112 423.719 283.53 406.148 286.827 386.391C288.301 377.561 290.563 369.018 293.401 360.746L308.057 367.598C315.944 371.289 326.034 367.633 329.733 359.84C333.51 351.895 330.127 342.219 321.916 338.385L307.248 331.529C321.803 306.879 342.551 286.475 367.651 272.58L374.264 287.525C377.786 295.395 387.614 299.238 395.795 295.785C404.112 292.09 407.663 282.539 404.096 274.492L397.561 259.76C404.526 257.59 411.606 255.66 418.95 254.437C440.252 250.896 458.911 241.318 474.053 228.092L489.004 241.555C495.741 247.637 506.516 246.508 512.022 240.441C518.053 233.822 517.545 223.676 510.891 217.664L495.063 203.404C508.977 181.344 515.522 154.586 511.229 126.865L533.082 120.41C541.657 117.869 546.608 108.951 544.036 100.328ZM413.682 222.869C333.395 236.229 268.596 300.998 255.217 381.133C246.995 430.43 193.614 462.877 143.752 440.699C126.168 432.879 112.024 419.197 103.924 402.178C71.176 333.355 164.985 102.039 387.401 65.035C397.905 63.273 450.221 61.35 472.215 109.404C506.09 183.414 435.948 219.166 413.682 222.869ZM192.223 272C165.676 272 144.157 293.49 144.157 320S165.676 368 192.223 368S240.289 346.51 240.289 320S218.77 272 192.223 272ZM192.223 336C183.389 336 176.202 328.822 176.202 320S183.389 304 192.223 304S208.246 311.178 208.246 320S201.057 336 192.223 336ZM272.334 184C259.063 184 248.301 194.746 248.301 208S259.063 232 272.334 232C285.61 232 296.37 221.254 296.37 208S285.61 184 272.334 184Z"/></svg>
